remix/Media/mic-fill.svg

<svg viewBox="0 0 24 24" fill="currentColor" xmlns="http://www.w3.org/2000/svg"><path d="M11.9998 1C14.7612 1 16.9998 3.23858 16.9998 6V10C16.9998 12.7614 14.7612 15 11.9998 15C9.23833 15 6.99976 12.7614 6.99976 10V6C6.99976 3.23858 9.23833 1 11.9998 1ZM3.05469 11H5.07065C5.55588 14.3923 8.47329 17 11.9998 17C15.5262 17 18.4436 14.3923 18.9289 11H20.9448C20.4837 15.1716 17.1714 18.4839 12.9998 18.9451V23H10.9998V18.9451C6.82814 18.4839 3.51584 15.1716 3.05469 11Z"/></svg>

<svg viewBox="0 0 24 24" xmlns="http://www.w3.org/2000/svg"><path fill="none" d="M0 0h24v24H0Z"/><path d="M12 1v0c2.76 0 5 2.23 5 5v4 0c0 2.76-2.24 5-5 5 -2.77 0-5-2.24-5-5V6v0c0-2.77 2.23-5 5-5ZM3.05 11h2.01l0 0c.55 3.82 4.11 6.47 7.93 5.92 3.06-.45 5.47-2.86 5.92-5.93h2.01 0c-.47 4.17-3.77 7.47-7.95 7.94v4.05h-2V18.92h-.001c-4.18-.47-7.48-3.77-7.95-7.945Z"/></svg>
